assets/capabilities/alarm_sound.svg

<svg height="960" viewBox="0 0 960 960" width="960" xmlns="http://www.w3.org/2000/svg"><g fill="none" fill-rule="evenodd" transform="translate(127 83)"><path d="m299.09262 733.671538c-3.983852 7.126261-9.520731 12.691531-17.015775 16.899419-14.990087 8.483644-32.140907 8.620061-46.658333 0-7.224952-4.275078-12.829354-10.112504-17.15082-17.848909-4.321467-7.804952-6.4822-15.678453-6.4822-24.093549 0-8.552192 2.09321-16.425014 6.414677-24.093549 4.253943-7.669893 9.858345-13.370902 16.948251-17.57879 7.157429-4.207887 14.855041-6.243962 23.362928-6.243962 13.234491 0 24.105681 4.480043 33.086228 13.777438 9.048071 9.298074 13.504583 20.632223 13.504583 34.681137 0 9.230205-2.025688 17.238765-6.009539 24.500765m32.68109-162.071538h-18.096141c-5.401833 0-9.790823 4.411495-9.790823 9.841027v57.213696c-3.376145-2.579027-6.887337-4.886579-10.601097-6.786915-10.871189-5.768878-23.092837-8.619382-36.327328-8.619382-22.890267 0-42.742004 8.415775-59.015026 24.907979-16.2055 16.492204-24.443295 36.649342-24.443295 59.860593 0 23.618465 8.170273 44.047759 24.173203 60.539284 16.137976 16.627943 35.92219 25.043718 58.744935 25.043718 12.829354 0 24.848432-2.714766 35.719621-8.144298 4.051375-2.036075 7.967704-4.411495 11.681464-7.126261v1.696728c0 5.429533 4.38899 9.841028 9.790823 9.841028h18.096141c5.401833 0 9.790822-4.411495 9.790822-9.841028v-198.585142c.135046-5.429532-4.321466-9.841027-9.723299-9.841027" fill="#000" fill-rule="nonzero"/><path d="m405.975 696.475994h1.08c19.2375 0 28.0125 1.151351 31.995 2.1002 7.83 1.895666 13.7025 5.214267 18.021825 10.090579 3.983175 4.605405 5.940675 9.820349 5.940675 15.984143 0 4.875634-1.418175 9.27786-4.253175 13.476906-2.9025 4.334499-6.681825 7.382194-11.475 9.41399-3.644325 1.557711-11.34 3.386328-27.2025 3.386328h-14.039325v-54.452146zm41.3775-62.782512c0 4.606082-1.215 8.601272-3.780675 12.394636-2.565 3.792009-6.006825 6.434022-10.4625 8.194235-3.509325 1.422257-10.866825 3.047695-25.919325 3.047695h-1.215v-42.193641h12.4875c13.8375 0 20.3175 2.912242 23.2875 5.350397 3.846825 3.115422 5.6025 7.315145 5.6025 13.206678zm49.7475 65.221345c-3.578175-7.788554-8.7075-14.561209-15.1875-20.047736-2.903175-2.505883-6.278175-4.740859-10.125-6.840382 2.9025-2.979968 5.4-6.230843 7.4925-9.752623 5.0625-8.533545 7.626825-18.150716 7.626825-28.512878 0-11.03875-2.901825-21.266136-8.639325-30.409221-5.805-9.143084-13.770675-16.051192-23.760675-20.453418-9.585-4.266772-22.41-6.298569-39.216825-6.298569h-38.0025c-5.4 0-9.7875 4.402226-9.7875 9.82035v193.3593c0 5.418124 4.3875 9.82035 9.7875 9.82035h52.919325c21.533175 0 39.15-6.298569 52.245675-18.760254 13.2975-12.597139 20.0475-28.241294 20.0475-46.527463 0-9.143084-1.8225-17.677307-5.4-25.397456z" fill="#000" fill-rule="nonzero"/><path d="m0 250.6v28.535097c0 8.284271 6.715729 15 15 15s15-6.715729 15-15v-28.535097c0-8.284271-6.715729-15-15-15s-15 6.715729-15 15z" fill="#000" fill-rule="nonzero"/><g stroke="#000" stroke-linecap="round" stroke-width="30"><path d="m71 219.99823v89.543427"/><path d="m636 219.99823v89.543427"/><path d="m184 201.000621v128.584137"/><path d="m297 81.999563v365.447854"/><path d="m409.3525 94.000468v340.922184"/><path d="m523 119.999449v289.600551"/></g><g fill="#000" fill-rule="nonzero"><path d="m677 250.6v28.535097c0 8.284271 6.715729 15 15 15s15-6.715729 15-15v-28.535097c0-8.284271-6.715729-15-15-15s-15 6.715729-15 15z"/><path d="m113 191.999457v146.138391c0 8.284271 6.715729 15 15 15s15-6.715729 15-15v-146.138391c0-8.284272-6.715729-15-15-15s-15 6.715728-15 15z"/><path d="m226 128.999705v270.600295c0 8.284271 6.715729 15 15 15s15-6.715729 15-15v-270.600295c0-8.284271-6.715729-15-15-15s-15 6.715729-15 15z"/><path d="m338 15v499.384038c0 8.284271 6.715729 15 15 15s15-6.715729 15-15v-499.384038c0-8.284271-6.715729-15-15-15s-15 6.715729-15 15z"/><path d="m451 149.000685v233.479067c0 8.284271 6.715729 15 15 15s15-6.715729 15-15v-233.479067c0-8.284271-6.715729-15-15-15s-15 6.715729-15 15z"/><path d="m564 175.999554v178.07444c0 8.284271 6.715729 15 15 15s15-6.715729 15-15v-178.07444c0-8.284272-6.715729-15-15-15s-15 6.715728-15 15z"/></g></g></svg>

<?xml version="1.0" encoding="UTF-8"?>
<svg width="960px" height="960px" viewBox="0 0 960 960" version="1.1" xmlns="http://www.w3.org/2000/svg" xmlns:xlink="http://www.w3.org/1999/xlink">
    <title>custom-capabilities/alarm_sound</title>
    <g id="custom-capabilities/alarm_sound" stroke="none" stroke-width="1" fill="none" fill-rule="evenodd">
        <g id="measure_noise" transform="translate(127.000000, 83.000000)">
            <path d="M299.09262,733.671538 C295.108768,740.797799 289.571889,746.363069 282.076845,750.570957 C267.086758,759.054601 249.935938,759.191018 235.418512,750.570957 C228.19356,746.295879 222.589158,740.458453 218.267692,732.722048 C213.946225,724.917096 211.785492,717.043595 211.785492,708.628499 C211.785492,700.076307 213.878702,692.203485 218.200169,684.53495 C222.454112,676.865057 228.058514,671.164048 235.14842,666.95616 C242.305849,662.748273 250.003461,660.712198 258.511348,660.712198 C271.745839,660.712198 282.617029,665.192241 291.597576,674.489636 C300.645647,683.78771 305.102159,695.121859 305.102159,709.170773 C305.102159,718.400978 303.076471,726.409538 299.09262,733.671538 M331.77371,571.6 L313.677569,571.6 C308.275736,571.6 303.886746,576.011495 303.886746,581.441027 L303.886746,638.654723 C300.510601,636.075696 296.999409,633.768144 293.285649,631.867808 C282.41446,626.09893 270.192812,623.248426 256.958321,623.248426 C234.068054,623.248426 214.216317,631.664201 197.943295,648.156405 C181.737795,664.648609 173.5,684.805747 173.5,708.016998 C173.5,731.635463 181.670273,752.064757 197.673203,768.556282 C213.811179,785.184225 233.595393,793.6 256.418138,793.6 C269.247492,793.6 281.26657,790.885234 292.137759,785.455702 C296.189134,783.419627 300.105463,781.044207 303.819223,778.329441 L303.819223,780.026169 C303.819223,785.455702 308.208213,789.867197 313.610046,789.867197 L331.706187,789.867197 C337.10802,789.867197 341.497009,785.455702 341.497009,780.026169 L341.497009,581.441027 C341.632055,576.011495 337.175543,571.6 331.77371,571.6" id="Fill-6" fill="#000000" fill-rule="nonzero"></path>
            <path d="M405.975,696.475994 L407.055,696.475994 C426.2925,696.475994 435.0675,697.627345 439.05,698.576194 C446.88,700.47186 452.7525,703.790461 457.071825,708.666773 C461.055,713.272178 463.0125,718.487122 463.0125,724.650916 C463.0125,729.52655 461.594325,733.928776 458.759325,738.127822 C455.856825,742.462321 452.0775,745.510016 447.284325,747.541812 C443.64,749.099523 435.944325,750.92814 420.081825,750.92814 L406.0425,750.92814 L406.0425,696.475994 L405.975,696.475994 Z M447.3525,633.693482 C447.3525,638.299564 446.1375,642.294754 443.571825,646.088118 C441.006825,649.880127 437.565,652.52214 433.109325,654.282353 C429.6,655.70461 422.2425,657.330048 407.19,657.330048 L405.975,657.330048 L405.975,615.136407 L418.4625,615.136407 C432.3,615.136407 438.78,618.048649 441.75,620.486804 C445.596825,623.602226 447.3525,627.801949 447.3525,633.693482 L447.3525,633.693482 Z M497.1,698.914827 C493.521825,691.126273 488.3925,684.353618 481.9125,678.867091 C479.009325,676.361208 475.634325,674.126232 471.7875,672.026709 C474.69,669.046741 477.1875,665.795866 479.28,662.274086 C484.3425,653.740541 486.906825,644.12337 486.906825,633.761208 C486.906825,622.722458 484.005,612.495072 478.2675,603.351987 C472.4625,594.208903 464.496825,587.300795 454.506825,582.898569 C444.921825,578.631797 432.096825,576.6 415.29,576.6 L377.2875,576.6 C371.8875,576.6 367.5,581.002226 367.5,586.42035 L367.5,779.77965 C367.5,785.197774 371.8875,789.6 377.2875,789.6 L430.206825,789.6 C451.74,789.6 469.356825,783.301431 482.4525,770.839746 C495.75,758.242607 502.5,742.598452 502.5,724.312283 C502.5,715.169199 500.6775,706.634976 497.1,698.914827 L497.1,698.914827 Z" id="Fill-8" fill="#000000" fill-rule="nonzero"></path>
            <path d="M0,250.6 L0,279.135097 C0,287.419368 6.715729,294.135097 15,294.135097 C23.284271,294.135097 30,287.419368 30,279.135097 L30,250.6 C30,242.315729 23.284271,235.6 15,235.6 C6.715729,235.6 0,242.315729 0,250.6 Z" id="Line-2" fill="#000000" fill-rule="nonzero"></path>
            <g id="Group" stroke-linecap="round" transform="translate(70.500000, 81.999563)" stroke="#000000" stroke-width="30">
                <line x1="0.5" y1="137.998667" x2="0.5" y2="227.542094" id="Line"></line>
                <line x1="565.5" y1="137.998667" x2="565.5" y2="227.542094" id="Line"></line>
                <line x1="113.5" y1="119.001058" x2="113.5" y2="247.585195" id="Line-4"></line>
                <line x1="226.5" y1="-9.2148511e-15" x2="226.5" y2="365.447854" id="Line-6"></line>
                <line x1="338.8525" y1="12.0009051" x2="338.8525" y2="352.923089" id="Line-8"></line>
                <line x1="452.5" y1="37.9998857" x2="452.5" y2="327.600437" id="Line-10"></line>
            </g>
            <path d="M677,250.6 L677,279.135097 C677,287.419368 683.715729,294.135097 692,294.135097 C700.284271,294.135097 707,287.419368 707,279.135097 L707,250.6 C707,242.315729 700.284271,235.6 692,235.6 C683.715729,235.6 677,242.315729 677,250.6 Z" id="Line-2" fill="#000000" fill-rule="nonzero"></path>
            <path d="M113,191.999457 L113,338.137848 C113,346.422119 119.715729,353.137848 128,353.137848 C136.284271,353.137848 143,346.422119 143,338.137848 L143,191.999457 C143,183.715185 136.284271,176.999457 128,176.999457 C119.715729,176.999457 113,183.715185 113,191.999457 Z" id="Line-3" fill="#000000" fill-rule="nonzero"></path>
            <path d="M226,128.999705 L226,399.6 C226,407.884271 232.715729,414.6 241,414.6 C249.284271,414.6 256,407.884271 256,399.6 L256,128.999705 C256,120.715434 249.284271,113.999705 241,113.999705 C232.715729,113.999705 226,120.715434 226,128.999705 Z" id="Line-5" fill="#000000" fill-rule="nonzero"></path>
            <path d="M338,15 L338,514.384038 C338,522.668309 344.715729,529.384038 353,529.384038 C361.284271,529.384038 368,522.668309 368,514.384038 L368,15 C368,6.715729 361.284271,-5.68434189e-14 353,-5.68434189e-14 C344.715729,-5.68434189e-14 338,6.715729 338,15 Z" id="Line-7" fill="#000000" fill-rule="nonzero"></path>
            <path d="M451,149.000685 L451,382.479752 C451,390.764023 457.715729,397.479752 466,397.479752 C474.284271,397.479752 481,390.764023 481,382.479752 L481,149.000685 C481,140.716414 474.284271,134.000685 466,134.000685 C457.715729,134.000685 451,140.716414 451,149.000685 Z" id="Line-9" fill="#000000" fill-rule="nonzero"></path>
            <path d="M564,175.999554 L564,354.073994 C564,362.358265 570.715729,369.073994 579,369.073994 C587.284271,369.073994 594,362.358265 594,354.073994 L594,175.999554 C594,167.715282 587.284271,160.999554 579,160.999554 C570.715729,160.999554 564,167.715282 564,175.999554 Z" id="Line-11" fill="#000000" fill-rule="nonzero"></path>
        </g>
    </g>
</svg>
